svg/sunglasses.svg

<svg xmlns="http://www.w3.org/2000/svg" viewBox="0 0 24 24"><path d="M7 17H4C2.38 17 .96 15.74.76 14.14l-.5-2.99C.15 10.3.39 9.5.91 8.92S2.19 8 3 8h6c.83 0 1.58.35 2.06.96.11.15.21.31.29.49.43-.09.87-.09 1.29 0 .08-.18.18-.34.3-.49C13.41 8.35 14.16 8 15 8h6c.81 0 1.57.34 2.09.92.51.58.75 1.38.65 2.19l-.51 3.07C23.04 15.74 21.61 17 20 17h-3c-1.56 0-3.08-1.19-3.46-2.7l-.9-2.71c-.38-.28-.91-.28-1.29 0l-.92 2.78C10.07 15.82 8.56 17 7 17"/></svg>

<?xml version="1.0" encoding="UTF-8"?><!DOCTYPE svg PUBLIC "-//W3C//DTD SVG 1.1//EN" "http://www.w3.org/Graphics/SVG/1.1/DTD/svg11.dtd"><svg xmlns="http://www.w3.org/2000/svg" xmlns:xlink="http://www.w3.org/1999/xlink" version="1.1" id="mdi-sunglasses" width="24" height="24" viewBox="0 0 24 24"><path d="M7,17H4C2.38,17 0.96,15.74 0.76,14.14L0.26,11.15C0.15,10.3 0.39,9.5 0.91,8.92C1.43,8.34 2.19,8 3,8H9C9.83,8 10.58,8.35 11.06,8.96C11.17,9.11 11.27,9.27 11.35,9.45C11.78,9.36 12.22,9.36 12.64,9.45C12.72,9.27 12.82,9.11 12.94,8.96C13.41,8.35 14.16,8 15,8H21C21.81,8 22.57,8.34 23.09,8.92C23.6,9.5 23.84,10.3 23.74,11.11L23.23,14.18C23.04,15.74 21.61,17 20,17H17C15.44,17 13.92,15.81 13.54,14.3L12.64,11.59C12.26,11.31 11.73,11.31 11.35,11.59L10.43,14.37C10.07,15.82 8.56,17 7,17Z" /></svg>
